icons/excel_logo.svg

<svg width="48" height="48" viewBox="0 0 48 48" fill="none" xmlns="http://www.w3.org/2000/svg">
<path fill-rule="evenodd" clip-rule="evenodd" d="M15 8C15 6.89543 15.8059 6 16.8 6H40.2C41.1941 6 42 6.89543 42 8V40C42 41.1046 41.1941 42 40.2 42H16.8C15.8059 42 15 41.1046 15 40V34H7.8C6.80589 34 6 33.1046 6 32V16C6 14.8954 6.80589 14 7.8 14H15V8ZM28 14V8H17V14L28 14ZM30 8V14L40 14V8H30ZM28 16L24 16V23H28V16ZM30 23V16L40 16V23L30 23ZM28 25H24V32H28V25ZM30 32V25L40 25V32H30ZM28 34H17V40H28V34ZM30 40V34H40V40H30ZM22 16V32H7.8V16H22ZM11.2258 19H13.3732L15.1156 22.754L16.957 19H18.9631L16.1992 24L19.0261 29H16.9102L15.0112 25.07L13.1203 29H10.9729L13.8466 23.982L11.2258 19Z" fill="black"/>
</svg>

<svg
  xmlns="http://www.w3.org/2000/svg"
  width="24"
  height="24"
  viewBox="0 0 24 24"
  fill="none"
  stroke="currentColor"
  stroke-width="2"
  stroke-linecap="round"
  stroke-linejoin="round"
>
  <path
    fill-rule="evenodd"
    d="M15 8c0-1.105.806-2 1.8-2h23.4c.994 0 1.8.895 1.8 2v32c0 1.105-.806 2-1.8 2H16.8c-.994 0-1.8-.895-1.8-2v-6H7.8c-.994 0-1.8-.895-1.8-2V16c0-1.105.806-2 1.8-2H15zm13 6V8H17v6zm2-6v6h10V8zm-2 8h-4v7h4zm2 7v-7h10v7zm-2 2h-4v7h4zm2 7v-7h10v7zm-2 2H17v6h11zm2 6v-6h10v6zm-8-24v16H7.8V16zm-10.774 3h2.147l1.743 3.754L16.957 19h2.006L16.2 24l2.827 5H16.91l-1.899-3.93-1.89 3.93h-2.148l2.874-5.018z"
    clip-rule="evenodd"
  />
</svg>
